public/logos/1867/GWR.svg

<svg version="1.1" id="Layer_1" xmlns="http://www.w3.org/2000/svg" xmlns:xlink="http://www.w3.org/1999/xlink" x="0" y="0" viewBox="0 0 283.5 283.5" xml:space="preserve"><style>.st0{fill:#006684}.st2{fill:#fff}</style><symbol id="Nouveau_symbole_6" viewBox="-25.5 -25.5 51 51"><circle class="st0" r="25.5"/><defs><circle id="SVGID_1_" cx="0" cy="0" r="25.5"/></defs><clipPath id="SVGID_2_"><use xlink:href="#SVGID_1_" overflow="visible"/></clipPath><path d="M0 2.8l-1.4 22.7h2.8L0 2.8zm-6.5 21.9l-2.7-.9L-.8 2.7l-5.7 22zm-7.3-3.2l-2.3-1.7L-1.7 2.3l-12.1 19.2zm-6-5.4l-1.7-2.3L-2.3 1.7l-17.5 14.4zm-4-6.9l-.9-2.7 22-5.7-21.1 8.4zm-1.7-7.8v-2.8L-2.8 0l-22.7 1.4zm.8-7.9l.9-2.7L-2.7-.8l-22-5.7zm3.2-7.3l1.7-2.3L-2.3-1.7l-19.2-12.1zm5.4-6l2.3-1.7L-1.7-2.3l-14.4-17.5zm6.9-4l2.7-.9 5.7 22-8.4-21.1zm7.8-1.7h2.8L0-2.8l-1.4-22.7zm7.9.8l2.7.9L.9-2.7l5.6-22zm7.3 3.2l2.3 1.7L1.7-2.3l12.1-19.2zm6 5.4l1.7 2.3L2.3-1.7l17.5-14.4zm4 6.9l.9 2.7-22 5.7 21.1-8.4zm1.7 7.8v2.8L2.8 0l22.7-1.4zm-.8 7.9l-.9 2.7L2.7.9l22 5.6zm-3.2 7.3l-1.7 2.3L2.3 1.7l19.2 12.1zm-5.4 6l-2.3 1.7L1.7 2.3l14.4 17.5zm-6.9 4l-2.7.9-5.7-22 8.4 21.1z" clip-path="url(#SVGID_2_)" fill="#869fb4"/><circle class="st2" r="8.5"/><path class="st0" d="M5.7 5.7c-3.6-1.2-7.6-1.3-11.4 0C-7.1 4.2-8 2.2-8 0s.9-4.2 2.3-5.7H5.7C7.1-4.2 8-2.2 8 0s-.9 4.2-2.3 5.7z"/><path class="st2" d="M-5.1-5.7c0 4.1.4 10.1.4 10.1s.4-6 .4-10.1h-.8zm1.4 0c0 3.9.4 9.8.4 9.8s.4-5.8.4-9.8h-.8zm1.3 0c0 3.9.4 9.6.4 9.6s.4-5.7.4-9.6h-.8zm1.3 0c0 3.8.4 9.5.4 9.5s.4-5.7.4-9.5h-.8zm1.4 0c0 3.8.4 9.5.4 9.5s.4-5.7.4-9.5H.3zm1.3 0c0 3.9.4 9.6.4 9.6s.4-5.7.4-9.6h-.8zm1.3 0c0 3.9.4 9.8.4 9.8s.4-5.8.4-9.8h-.8zm1.4 0c0 4.1.4 10.1.4 10.1s.4-6 .4-10.1h-.8z"/><path class="st0" d="M-5.4-5.7C-5.4-4.2-4.3-3-2.8-3h.4c.3 1.1 1.3 1.8 2.4 1.8S2.1-1.9 2.4-3h.4c1.4 0 2.6-1.2 2.6-2.7H-5.4z"/><path class="st2" d="M2.8-3.4c-.2 0-.5 0-.7-.1C2-2.4 1.1-1.6 0-1.6s-2-.8-2.2-1.9c-.2.1-.4.1-.7.1-1.2 0-2.2-1-2.2-2.3H5c0 1.3-1 2.3-2.2 2.3z"/></symbol><path class="st0" d="M280.6 141.7c0 76.7-62.2 138.9-138.9 138.9S2.8 218.4 2.8 141.7 65 2.8 141.7 2.8 280.6 65 280.6 141.7z"/><defs><path id="SVGID_3_" d="M263.3 141.7c0 67.1-54.4 121.5-121.5 121.5S20.3 208.8 20.3 141.7 74.6 20.2 141.7 20.2c67.2 0 121.6 54.4 121.6 121.5z"/></defs><clipPath id="SVGID_4_"><use xlink:href="#SVGID_3_" overflow="visible"/></clipPath><g clip-path="url(#SVGID_4_)"><use xlink:href="#Nouveau_symbole_6" width="51" height="51" x="-25.5" y="-25.5" transform="matrix(6.8055 0 0 -6.8055 141.734 141.736)" overflow="visible"/></g><use xlink:href="#SVGID_3_" overflow="visible" fill="none" stroke="#fff" stroke-width=".5" stroke-miterlimit="10"/></svg>

<?xml version="1.0" encoding="utf-8"?>
<!-- Generator: Adobe Illustrator 25.0.1, SVG Export Plug-In . SVG Version: 6.00 Build 0)  -->
<svg version="1.1" id="Layer_1" xmlns="http://www.w3.org/2000/svg" xmlns:xlink="http://www.w3.org/1999/xlink" x="0px" y="0px"
	 viewBox="0 0 283.5 283.5" style="enable-background:new 0 0 283.5 283.5;" xml:space="preserve">
<style type="text/css">
	.st0{fill:#006684;}
	.st1{clip-path:url(#SVGID_2_);fill:#869FB4;}
	.st2{fill:#FFFFFF;}
</style>
<symbol  id="Nouveau_symbole_6" viewBox="-25.5 -25.5 51 51">
	<circle class="st0" cx="0" cy="0" r="25.5"/>
	<g>
		<defs>
			<circle id="SVGID_1_" cx="0" cy="0" r="25.5"/>
		</defs>
		<clipPath id="SVGID_2_">
			<use xlink:href="#SVGID_1_"  style="overflow:visible;"/>
		</clipPath>
		<path class="st1" d="M0,2.8l-1.4,22.7h2.8L0,2.8z M-6.5,24.7l-2.7-0.9l8.4-21.1L-6.5,24.7z M-13.8,21.5l-2.3-1.7L-1.7,2.3
			L-13.8,21.5z M-19.8,16.1l-1.7-2.3L-2.3,1.7L-19.8,16.1z M-23.8,9.2l-0.9-2.7l22-5.7L-23.8,9.2z M-25.5,1.4v-2.8L-2.8,0L-25.5,1.4
			z M-24.7-6.5l0.9-2.7l21.1,8.4L-24.7-6.5z M-21.5-13.8l1.7-2.3L-2.3-1.7L-21.5-13.8z M-16.1-19.8l2.3-1.7L-1.7-2.3L-16.1-19.8z
			 M-9.2-23.8l2.7-0.9l5.7,22L-9.2-23.8z M-1.4-25.5h2.8L0-2.8L-1.4-25.5z M6.5-24.7l2.7,0.9L0.9-2.7L6.5-24.7z M13.8-21.5l2.3,1.7
			L1.7-2.3L13.8-21.5z M19.8-16.1l1.7,2.3L2.3-1.7L19.8-16.1z M23.8-9.2l0.9,2.7l-22,5.7L23.8-9.2z M25.5-1.4v2.8L2.8,0L25.5-1.4z
			 M24.7,6.5l-0.9,2.7L2.7,0.9L24.7,6.5z M21.5,13.8l-1.7,2.3L2.3,1.7L21.5,13.8z M16.1,19.8l-2.3,1.7L1.7,2.3L16.1,19.8z M9.2,23.8
			l-2.7,0.9l-5.7-22L9.2,23.8z"/>
	</g>
	<circle class="st2" cx="0" cy="0" r="8.5"/>
	<g>
		<path class="st0" d="M5.7,5.7L5.7,5.7c-3.6-1.2-7.6-1.3-11.4,0h0C-7.1,4.2-8,2.2-8,0c0-2.2,0.9-4.2,2.3-5.7H5.7C7.1-4.2,8-2.2,8,0
			C8,2.2,7.1,4.2,5.7,5.7z"/>
	</g>
	<path class="st2" d="M-5.1-5.7c0,4.1,0.4,10.1,0.4,10.1s0.4-6,0.4-10.1H-5.1z"/>
	<path class="st2" d="M-3.7-5.7c0,3.9,0.4,9.8,0.4,9.8s0.4-5.8,0.4-9.8H-3.7z"/>
	<path class="st2" d="M-2.4-5.7C-2.4-1.8-2,3.9-2,3.9s0.4-5.7,0.4-9.6H-2.4z"/>
	<path class="st2" d="M-1.1-5.7c0,3.8,0.4,9.5,0.4,9.5s0.4-5.7,0.4-9.5H-1.1z"/>
	<path class="st2" d="M0.3-5.7c0,3.8,0.4,9.5,0.4,9.5s0.4-5.7,0.4-9.5H0.3z"/>
	<path class="st2" d="M1.6-5.7C1.6-1.8,2,3.9,2,3.9s0.4-5.7,0.4-9.6H1.6z"/>
	<path class="st2" d="M2.9-5.7c0,3.9,0.4,9.8,0.4,9.8s0.4-5.8,0.4-9.8H2.9z"/>
	<path class="st2" d="M4.3-5.7c0,4.1,0.4,10.1,0.4,10.1s0.4-6,0.4-10.1H4.3z"/>
	<path class="st0" d="M-5.4-5.7C-5.4-4.2-4.3-3-2.8-3c0.1,0,0.3,0,0.4,0C-2.1-1.9-1.1-1.2,0-1.2S2.1-1.9,2.4-3c0.1,0,0.3,0,0.4,0
		c1.4,0,2.6-1.2,2.6-2.7H-5.4z"/>
	<path class="st2" d="M2.8-3.4c-0.2,0-0.5,0-0.7-0.1C2-2.4,1.1-1.6,0-1.6c-1.1,0-2-0.8-2.2-1.9c-0.2,0.1-0.4,0.1-0.7,0.1
		c-1.2,0-2.2-1-2.2-2.3H5C5-4.4,4-3.4,2.8-3.4z"/>
</symbol>
<g>
	<path class="st0" d="M280.6,141.7c0,76.7-62.2,138.9-138.9,138.9C65,280.6,2.8,218.4,2.8,141.7C2.8,65,65,2.8,141.7,2.8
		C218.4,2.8,280.6,65,280.6,141.7z"/>
	<g>
		<defs>
			<path id="SVGID_3_" d="M263.3,141.7c0,67.1-54.4,121.5-121.5,121.5c-67.1,0-121.5-54.4-121.5-121.5S74.6,20.2,141.7,20.2
				C208.9,20.2,263.3,74.6,263.3,141.7z"/>
		</defs>
		<clipPath id="SVGID_4_">
			<use xlink:href="#SVGID_3_"  style="overflow:visible;"/>
		</clipPath>
		<g style="clip-path:url(#SVGID_4_);">
			
				<use xlink:href="#Nouveau_symbole_6"  width="51" height="51" x="-25.5" y="-25.5" transform="matrix(6.8055 0 0 -6.8055 141.7341 141.7357)" style="overflow:visible;"/>
		</g>
		<use xlink:href="#SVGID_3_"  style="overflow:visible;fill:none;stroke:#FFFFFF;stroke-width:0.5;stroke-miterlimit:10;"/>
	</g>
</g>
</svg>
